dist/img/svg/icon-telegram.svg

<svg width="17" height="14" viewBox="0 0 17 14" fill="none" xmlns="http://www.w3.org/2000/svg">
<path d="M16.1616 0.321533C16.1049 0.321533 16.0401 0.329633 15.9834 0.353933L0.326135 6.30742C-0.119364 6.47752 -0.103164 7.10122 0.342335 7.25512L3.97113 8.47822L6.15812 12.8603L6.16622 12.8684C6.20672 12.9494 6.28772 12.998 6.37682 12.998C6.42542 12.998 6.48212 12.9818 6.53072 12.9413L8.58002 11.1998L6.28772 9.46642L6.46592 11.7506L4.82162 8.34052L13.5696 3.08363L6.28772 9.45832L11.9577 13.7594C12.144 13.9052 12.3627 13.97 12.5814 13.97C13.0269 13.97 13.4643 13.6784 13.5858 13.1843L16.6476 0.929032C16.7286 0.621233 16.4694 0.321533 16.1616 0.321533Z" fill="#1A8EC8"/>
</svg>

<svg width="17" height="14" viewBox="0 0 17 14" fill="none" xmlns="http://www.w3.org/2000/svg"><path d="M16.162.322a.462.462 0 00-.179.032L.326 6.307a.503.503 0 00.016.948l3.63 1.223 2.186 4.382.008.008c.04.081.122.13.21.13a.242.242 0 00.155-.057L8.58 11.2 6.288 9.466l.178 2.285-1.644-3.41 8.748-5.257-7.282 6.374 5.67 4.301a1 1 0 00.623.211 1.03 1.03 0 001.005-.786L16.648.93c.08-.308-.179-.607-.486-.607z" fill="#1A8EC8"/></svg>
